X:1
T:Title
%%score { 1 | ( 2 3 ) }
L:1/8
M:3/4
K:Ab
V:1 treble nm="Grand Piano"
V:2 bass 
V:3 bass 
V:1
 z2 z2[Q:1/4=100] [Ec]2 | [Ec]3 [Ec] [DB][CA] | A2 F2 A2 | E3 [CA] [DB][Ec] | B4 E2 | %5
 [Ec]3 [Ec] [EB][A,EA] | [A,FA][A,DF] [A,CE]2 [A,E]2 | [CEA]2 z2 [DEB]2 | [CEA]4 E2 | B3 F GA | %10
 [DG]2 [CA]2 [Ec]2 | [EB]3 [=DB] [EB][FB] | [EB]4 [DE]2 | [Cc]3 [Cc] [DB][EA] | A2 F2 [DFB]2 | %15
 [CEA]2 z2 [B,DG]2 |[M:2/4] [A,CA]4 |] %17
V:2
 z2 z2 [A,,A,]2 | [A,,A,]3 [A,,A,] [A,,A,][A,,A,] | [D,D]2- [D,A,D]2 [D,F,D]2 | %3
 [A,C]3 [A,,A,] [A,,A,][A,,A,] | [E,G,E]4 [E,G,]2 | [A,,A,]3 [A,,A,] [B,,G,]C, | D,D, A,,2 C,2 | %7
 E,2 z2 E,2 | A,,4 E,2 | [E,G,D]3 [E,A,D] [E,B,D][A,C] | [E,B,]2 A,2 [A,,A,]2 | %11
 [B,,G,]3 [B,,F,] [B,,G,][B,,A,] | [E,G,]4 [E,G,]2 | [A,,A,]3 [A,,A,] [B,,G,][C,_G,] | %14
 [D,D]2- [D,A,D]2 D,2 | E,2 z2 E,2 |[M:2/4] A,,4 |] %17
V:3
 x6 | x6 | F,2 z2 z2 | x6 | x6 | x6 | x6 | x6 | x6 | x6 | x6 | x6 | x6 | x6 | F,2 z2 z2 | x6 | %16
[M:2/4] x4 |] %17

